X:1
T:I Wan'na Be Like You
T:I Wan'na Be Like You
C:Robert B. Sherman
Z:All Rights Reserved
L:1/4
M:2/2
K:C
V:1 treble nm="Piano" snm="Pno."
%%MIDI program 0
V:1
 z2 z E |:"Am" c c B/c/ B | A A z E | E E E E |"E7" ^G2 z G | ^G3/2 G/ G G | ^G3/2 G/ G G/G/ | %7
w: Now|I'm the king of the|swing- ers, the|jun- gle V. I.|P. I've|reached the top and|had to stop and *|
w: |try to kid * me,|man- cub, and|don't get in a|stew. What|I de- sire is|man's red fire, so *|
w: |ape your man- * ner-|is- ms, we'll|be a set of|twins. No|one will know where|man- cub ends, and o-|
 ^G G G/^F/ G |"Am" A2 z E | c/c/c/c/ B B | A A z E/E/ | E E E E |"E7" ^G2 z G | ^G G G3/2 G/ | %14
w: that's what's both- er- in'|me. I|wan- na be a man, *|man- cub and *|stroll right in- to|town. And|be just like the|
w: I can be _ like|you. Give|me * the * se- cret|man- cub, just *|clue me what to|do. Give|me the pow'r of|
w: rang- u- tan _ be-|gins. And|when * I * eat ba-|na- nas, I won't|peel them with my|feet. 'Cause|I'll be- come a|
 ^G G G G | ^G G G/^F/ G |"Am" A z"G7" =G2 |"C" e c c z | z/ c/c/c/ B c |"A7" ^c A A z | %20
w: oth- er men, I'm|tired of mon- key- in'|'round! Oh|Ooh, ooh, ooh,|I wan- na be like|you, oo, oo!|
w: man's red flow'r, and|make a dream _ come|true! Oh||||
w: man, man- cub, and|learn som "et- * ti-|keet" Oh||||
 z z z/ e/e/^d/ |"D9" e A A z |"G7" e B B z |"C" A G"C#dim" A z |"Dm7" z e"G9" e e |"C" e c c z | %26
w: I wan- na|walk like you,|talk like you,|too, oo, oo.|You'll see it's|true, oo, oo.|
w: ||||||
w: ||||||
 z c B c |"A7" ^c A A z | z z z e |"D9" e A A z |"G9" e B B/ e3/2 |1"C" e c c z || %32
w: An ape like|me, ee, ee|can|learn to be|hu- oo- oo- man,|too, oo, oo.|
w: ||||||
w: ||||||
"D9" z z"E7" z E :|2"C" e c c z |] %34
w: Don't|too, oo, oo.|
w: I'l||
w: ||

